T: Thugamar Fein An Samhradh Linn
M: 3/4
L: 1/8
K: Dmix
A3B d2|e4 e2|e3f d2|e4 A2|
d3e f2|g3f e2|f3e d2|B6|
g3a  ge|f3e d2|e4 A2|d4 B2|
A3g  f2|g4 e2|d4 B2|A6||
G3A B2|A4 G2|E4 D2|D6|
G3A B2|d4 c2|B3A G2|A6|
d4 d2|c4 c2|B2 A2 G2|E4 D2|
G3A B2|A4 G2|E4 D2|D6||
